symbols/web/report/materialsymbolsoutlined/report_wght500_20px.svg

<svg xmlns="http://www.w3.org/2000/svg" height="20" width="20"><path d="m6.812 17.667-4.479-4.479V6.812l4.479-4.479h6.376l4.479 4.479v6.376l-4.479 4.479ZM10 14.312q.396 0 .677-.291.281-.292.281-.667 0-.396-.281-.677T10 12.396q-.396 0-.677.281t-.281.677q0 .375.281.667.281.291.677.291Zm-.917-3.374h1.834V5.771H9.083Zm-1.458 4.75h4.75l3.313-3.313v-4.75l-3.313-3.313h-4.75L4.312 7.625v4.75ZM10 10Z"/></svg>

<svg xmlns="http://www.w3.org/2000/svg" height="20" width="20"><path d="M6.812 17.667 2.333 13.188V6.812L6.812 2.333H13.188L17.667 6.812V13.188L13.188 17.667ZM10 14.312Q10.396 14.312 10.677 14.021Q10.958 13.729 10.958 13.354Q10.958 12.958 10.677 12.677Q10.396 12.396 10 12.396Q9.604 12.396 9.323 12.677Q9.042 12.958 9.042 13.354Q9.042 13.729 9.323 14.021Q9.604 14.312 10 14.312ZM9.083 10.938H10.917V5.771H9.083ZM7.625 15.688H12.375L15.688 12.375V7.625L12.375 4.312H7.625L4.312 7.625V12.375ZM10 10Z"/></svg>
